X:1
T:Title
%%score { ( 1 3 4 ) | ( 2 5 ) }
L:1/8
M:6/8
K:C
V:1 treble nm="Grand Piano"
V:3 treble 
V:4 treble 
V:2 bass 
V:5 bass 
V:1
 z3 z2[Q:1/4=78] C | E>DE [DF][CE][DF] | %2
[M:27/32] z/ [Ec]/4-[Ec]/4-[Ec]/4-[Ec]/4-[Ec]/4-[Ec]/4-[Ec]/-<[Ec]/ z/ G/4-G/4-G/4-G/4-G/4-G/4-G/-<G/ z/4 z/ | %3
[M:3/4] (9:8:10[CEG]3/2[G,CE]3/4 [G,CE]-[G,CE]/8[CEG]-[CEG]/8 [CEG]-[CEG]/8[G,CE]-[G,CE]/8 | %4
 (7:8:7[G,EG]3/4[G,DF]-[G,DF]/8[K:bass][G,CE]3/4[G,B,D]3/8-[G,B,D]3/2[E,C]3/4 | %5
 (9:8:10[G,CE]3/2[K:treble][G,CE]3/4 [G,DF]-[G,DF]/8[EG]-[EG]/8 [EG]-[EG]/8[EG]-[EG]/8 | %6
 (7:8:7[Fc]3/4[GB]-[GB]/8[FA]3/4[EG]3/8- [EG]2- [EG]/4 |[M:1/8] [EG] | %8
[M:3/4] (7:8:7[FA]3/2-[FA]3/8[FB]3/8[FB]3/8[Ec]3/8[Ec]3/2[K:bass][E,C]3/4 | %9
 (3[G,CE]/[G,CE]/- [G,CE]2 z [E,C]3 | %10
 (9:8:9[CEG]2- [CEG]/4 [G,CE]3/8[CEG]3/4[Ec]3/8-[Ec]3/2-[Ec]3/8[Ec]3/8[Ec]3/4 | %11
 (7:8:7d3/4c-c/8A3/4[EG]3/8- [EG]2- [EG]/4 | %12
 (9:8:9A2- A/4 A3/8A3/4[^Fd]3/8-[Fd]3/2-[Fd]3/8[Fc]3/8[Fc]3/4 | %13
 (7:8:7B3/2-B3/8c3/8c3/8d3/8- d2- d/4 | %14
 (9:8:9e2- e/4 [Ge]3/8[Fd]3/4[Ec]3/8-[Ec]3/2-[Ec]3/8[Ec]3/8[Ec]3/4 | (3[Fd]/[Fc]/- [Fc]2 z [EG]3 | %16
 (7:8:7[FA]3/2-[FA]3/8[FB]3/8[FB]3/8[Ec]3/8[Ec]3/2[Ec]3/4 | z2 [Fd]-[Fd]/4 z/4 z/ z2 |] %18
V:2
 z3 z2 [C,E,] | [C,G,C]>[C,G,C][C,G,C] [G,,G,][G,,G,][G,,G,] | %2
[M:27/32] [C,G,]/G,/4-G,/4-G,/4-G,/4-G,/-<G,/-[C,-G,C-]/[C,C]/C/4-C/4-C/4-C/4-C/-<C/-[C,-C]/C,3/4 | %3
[M:3/4] (9:8:10C,3/2C,3/4 C,-C,/8C,-C,/8 C,-C,/8C,-C,/8 | %4
 (7:8:7C,3/4B,,-B,,/8C,3/4G,,3/8-G,,3/2C,3/4 | %5
 (9:8:10C,3/2C,3/4 C,-C,/8[C,C]-[C,C]/8 [C,C]-[C,C]/8[C,C]-[C,C]/8 | %6
 (7:8:7[F,A,]3/4[F,B,]-[F,B,]/8[F,C]3/4[C,C]3/8- [C,C]2- [C,C]/4 |[M:1/8] [C,C] | %8
[M:3/4] (7:8:7[F,C]3/2-[F,C]3/8[D,G,]3/8[D,G,]3/8[C,G,]3/8[C,G,]3/2C,3/4 | (3G,,/G,,/- G,,2 z C,3 | %10
 (9:8:9C,2- C,/4 C,3/8C,3/4[C,G,]3/8-[C,G,]3/2-[C,G,]3/8[C,G,]3/8[C,G,]3/4 | %11
 (7:8:7[F,A,F]3/4[F,A,F]-[F,A,F]/8[F,CF]3/4[C,C]3/8- [C,C]2- [C,C]/4 | %12
 (9:8:9[F,CF]2- [F,CF]/4 [F,CF]3/8[F,CF]3/4[D,D]3/8-[D,D]3/2-[D,D]3/8[D,D]3/8[D,D]3/4 | %13
 (7:8:7[G,DG]3/2-[G,DG]3/8[A,D^F]3/8[A,DF]3/8[B,D=F]3/8- [B,DF]2- [B,DF]/4 | %14
 (9:8:9[CG]2- [CG]/4[K:bass] [C,C]3/8[C,C]3/4[C,G,]3/8-[C,G,]3/2-[C,G,]3/8[C,_B,]3/8[C,B,]3/4 | %15
 (3[E,A,]/[F,A,]/- [F,A,]2 C [C,C]3 | %16
 (7:8:7[F,C]3/2-[F,C]3/8[D,G,]3/8[D,G,]3/8[C,G,]3/8[C,G,]3/2[C,G,]3/4 | z2 .G,2 z2 |] %18
V:3
 x6 | x6 | %2
[M:27/32] z/4 z/4 z/4 z/4 z/4 z/4 z/4 z/4 z/ [FA]/4-[FA]/4-[FA]/-<[FA]/ z/4 z/4 z/4 z/4 z/4 z/4 z/4 z/4 z/4 z/ | %3
[M:3/4] x6 | x2[K:bass] x247/64 | x4/3[K:treble] x14/3 | x6 |[M:1/8] x |[M:3/4] x5[K:bass] x55/64 | %9
 z2 [F,B,D]-[F,B,D]/4 z/4 z/ z2 | x6 | x6 | x6 | x6 | x6 | z2 [FA]-[FA]/4 z/4 z/ z2 | x6 | %17
 (3[Ec]/[Ge]/- [Ge]2 z [Ec]3 |] %18
V:4
 x6 | x6 | %2
[M:27/32] [EG]/ z/4 z/4 z/4 z/4 z/4 z/4 z/4 z/4 z/4 z/4 z/ E/4-E/4-E/4-E/4-E/-<E/[G,CE]/4-[G,CE]/-<[G,CE]/ | %3
[M:3/4] x6 | x2[K:bass] x247/64 | x4/3[K:treble] x14/3 | x6 |[M:1/8] x |[M:3/4] x5[K:bass] x55/64 | %9
 x6 | x6 | x6 | x6 | x6 | x6 | x6 | x6 | x6 |] %18
V:5
 x6 | x6 | %2
[M:27/32] z/ C,/4-C,/4-C,/4-C,/4-C,/-<C,/ z/4 z/4 z/ C,/4-C,/4-C,/4-C,/4-C,/-<C,/ z/4 z/4 z/4 z/ | %3
[M:3/4] x6 | x6 | x6 | x6 |[M:1/8] x |[M:3/4] x6 | z2 G,,-G,,/4 z/4 z/ z2 | x6 | x6 | x6 | x6 | %14
 x2[K:bass] x4 | z2 F,-F,/4 z/4 z/ z2 | x6 | %17
 (3[G,,G,]/[G,,G,]/- [G,,G,]2 G,,-[G,,C,-G,-]/<[C,G,]/- [C,G,]2 |] %18

